X:3
T:Simple Gifts
C:Elder Joseph Brackett (1848), Shaker hymn, PD
M:4/4
L:1/8
Q:1/4=100
K:F
f4 f2 g2 | a4 f4 | a4 b2 c'2 | d'8 |
d'2 c'2 a2 c'2 | d'4 f4 | c'4 a2 f2 | g8 |
a4 a2 g2 | f4 d'4 | c'2 a2 c'2 a2 | f8 |
f4 g2 a2 | g4 e4 | f8- | f8 |
